src/assets/duotone/Ship.svg

<svg width="24" height="24" viewBox="0 0 24 24"  xmlns="http://www.w3.org/2000/svg">
<path d="M21.6297 14.6598L21.2197 16.5198C20.5097 19.7198 17.9997 21.9998 14.3797 21.9998H9.61974C5.99974 21.9998 3.48974 19.7198 2.77974 16.5198L2.36974 14.6598C2.16974 13.7498 2.70973 12.7198 3.57973 12.3698L4.99974 11.7998L10.5098 9.58981C10.9898 9.39981 11.4997 9.2998 11.9997 9.2998C12.4997 9.2998 13.0097 9.39981 13.4897 9.58981L18.9997 11.7998L20.4198 12.3698C21.2898 12.7198 21.8298 13.7498 21.6297 14.6598Z" />
<path opacity="0.4" d="M19 8V11.8L13.49 9.59C12.53 9.21 11.47 9.21 10.51 9.59L5 11.8V8C5 6.35 6.35 5 8 5H16C17.65 5 19 6.35 19 8Z" />
<path d="M14.5 5H9.5V3C9.5 2.45 9.95 2 10.5 2H13.5C14.05 2 14.5 2.45 14.5 3V5Z" />
</svg>

<?xml version="1.0" encoding="UTF-8"?>
<svg width="24" height="24" viewBox="0 0 24 24" xmlns="http://www.w3.org/2000/svg">
 <path d="m21.63 14.66-0.41 1.86c-0.71 3.2-3.22 5.48-6.84 5.48h-4.76c-3.62 0-6.13-2.28-6.84-5.48l-0.41-1.86c-0.2-0.91 0.33999-1.94 1.21-2.29l1.42-0.57 5.5101-2.21c0.48-0.19 0.9899-0.29001 1.4899-0.29001s1.01 0.10001 1.49 0.29001l5.51 2.21 1.4201 0.57c0.87 0.35 1.41 1.38 1.2099 2.29z"/>
 <path d="m19 8v3.8l-5.51-2.21c-0.96-0.38-2.02-0.38-2.98 0l-5.51 2.21v-3.8c0-1.65 1.35-3 3-3h8c1.65 0 3 1.35 3 3z" opacity=".4"/>
 <path d="m14.5 5h-5v-2c0-0.55 0.45-1 1-1h3c0.55 0 1 0.45 1 1v2z"/>
</svg>
